X:54
T:Horse's Bransle
T:Bransle des Chevaux
M:C|
L:1/4
K:G
GABB | cB A c | B A G F | E2 E2 | G A B B | c B A c | B G A A | G2 G2 ||
K:G
d c/B/ A A/B/ | c B/A/ G B | A G F G | A2 A2 | d c/B/ A A/B/ | c B/A/ G B | A G G F | G2 G2 ||
K:F
B A/G/ B A/G/ | F G A2 | D E F G | A B A G | B A/G/ B A/G/ | F G A2 | D E F G | G ^F G2 |]
%
